packages/admin/admin-icons/icons/html.svg

<svg xmlns="http://www.w3.org/2000/svg" width="16" height="16" viewBox="0 0 16 16"><path fill="#242424" fill-rule="evenodd" d="M3.5,0 L9.53959156,0.00156876395 L9.58987563,0.00805566941 L9.65473232,0.024543968 L9.72678591,0.0543895452 L9.75235957,0.0682646574 L9.82214364,0.117593731 L13.8535534,4.14644661 C14.147537,4.44043021 13.9728055,4.92918427 13.586032,4.99304488 L13.5,5 L9.5,5 C9.25454011,5 9.05039163,4.82312484 9.00805567,4.58987563 L9,4.5 L9,1 L3.5,1 C3.25454011,1 3.05039163,1.17687516 3.00805567,1.41012437 L3,1.5 L3,14.5 C3,14.7454599 3.17687516,14.9496084 3.41012437,14.9919443 L3.5,15 L12.5,15 C12.7454599,15 12.9496084,14.8231248 12.9919443,14.5898756 L13,14.5 L13,7 C13,6.72385763 13.2238576,6.5 13.5,6.5 C13.7454599,6.5 13.9496084,6.67687516 13.9919443,6.91012437 L14,7 L14,14.5 C14,15.2796961 13.4051119,15.9204487 12.64446,15.9931334 L12.5,16 L3.5,16 C2.72030388,16 2.07955132,15.4051119 2.00686658,14.64446 L2,14.5 L2,1.5 C2,0.720303883 2.59488808,0.0795513218 3.35553999,0.00686657806 L3.5,0 Z M9.02943456,7.02210829 C9.23642452,7.08863819 9.35885955,7.2877927 9.32899604,7.48892842 L9.31052591,7.56419202 L7.53274813,12.7068498 C7.4551269,12.9313883 7.20342913,13.0527379 6.97056544,12.9778917 C6.76357548,12.9113618 6.64114045,12.7122073 6.67100396,12.5110716 L6.68947409,12.435808 L8.46725187,7.29315015 C8.5448731,7.06861172 8.79657087,6.94726214 9.02943456,7.02210829 Z M6.5364919,7.98274671 C6.6907731,8.1315121 6.70791546,8.36243835 6.58791897,8.52946171 L6.5364919,8.58881474 L5.07288889,10 L6.5364919,11.4111853 C6.6907731,11.5599506 6.70791546,11.7908769 6.58791897,11.9579003 L6.5364919,12.0172533 C6.3822107,12.1660187 6.14272234,12.1825482 5.96950622,12.0668418 L5.90795254,12.0172533 L4.13017476,10.303034 C3.97589356,10.1542686 3.95875121,9.92334237 4.0787477,9.75631901 L4.13017476,9.69696598 L5.90795254,7.98274671 C6.08151889,7.81538564 6.36292555,7.81538564 6.5364919,7.98274671 Z M10.0223263,7.92783136 L10.0920475,7.98274671 L11.8698252,9.69696598 L11.9212523,9.75631901 C12.0241064,9.89948189 12.0262055,10.0895938 11.9275495,10.234673 L11.8698252,10.303034 L10.0920475,12.0172533 L10.0304938,12.0668418 C9.88202282,12.1660187 9.68486205,12.1680427 9.53440375,12.0729138 L9.4635081,12.0172533 L9.41208103,11.9579003 C9.3092269,11.8147374 9.30712783,11.6246254 9.40578384,11.4795463 L9.4635081,11.4111853 L10.9271111,10 L9.4635081,8.58881474 L9.41208103,8.52946171 C9.29208454,8.36243835 9.3092269,8.1315121 9.4635081,7.98274671 C9.61537866,7.83630577 9.84981445,7.81800066 10.0223263,7.92783136 Z M10,1.707 L10,4 L12.293,4 L10,1.707 Z"/></svg>

<svg width="16" height="16" fill="none" viewBox="0 0 16 16">
  <path fill="#242424" fill-rule="evenodd" d="m3.5.001 6.04.002.05.006.064.017.072.03.026.013.07.05 4.031 4.028a.5.5 0 0 1-.268.847l-.086.007h-4a.5.5 0 0 1-.491-.41L9 4.5V1H3.5a.5.5 0 0 0-.492.41L3 1.501v13a.5.5 0 0 0 .41.492L3.5 15h9a.5.5 0 0 0 .492-.41l.007-.09V7a.5.5 0 0 1 .992-.09l.008.09v7.5a1.5 1.5 0 0 1-1.355 1.493l-.145.007h-9a1.5 1.5 0 0 1-1.493-1.356L2 14.501v-13A1.5 1.5 0 0 1 3.355.008L3.5 0ZM10 1.708v2.293h2.293L10 1.708Z M9.029 7.023a.448.448 0 0 0-.562.271l-1.778 5.143-.018.075c-.03.201.092.4.3.467a.448.448 0 0 0 .561-.271L9.31 7.565l.019-.075a.428.428 0 0 0-.3-.467Zm-3.122.961a.456.456 0 0 1 .629 0c.154.148.171.38.051.546l-.051.06L5.072 10l1.464 1.411c.154.149.171.38.051.547l-.051.06a.457.457 0 0 1-.567.049l-.062-.05-1.777-1.714a.417.417 0 0 1-.052-.547l.052-.06 1.777-1.713Zm4.185 0a.456.456 0 0 0-.629 0 .417.417 0 0 0-.051.546l.051.06L10.927 10l-1.464 1.411a.417.417 0 0 0-.051.547l.051.06a.457.457 0 0 0 .567.049l.062-.05 1.777-1.714a.417.417 0 0 0 .052-.547l-.052-.06-1.777-1.713Z" clip-rule="evenodd"/>
</svg>
